X:682
M:C|
L:1/8
K:E Minor
f|gef^d e2 Be|dBAd FDDf|gef^d Be|d>BAF E/E/E Ef|gef^d e2 Be|
dBAd FDDF|E>FGA B2 Bf|gef^d e/e/e e||

